Numix/16/emotes/face-cool.svg

<?xml version="1.0" encoding="UTF-8" standalone="no"?>
<svg
   xmlns:dc="http://purl.org/dc/elements/1.1/"
   xmlns:cc="http://creativecommons.org/ns#"
   xmlns:rdf="http://www.w3.org/1999/02/22-rdf-syntax-ns#"
   xmlns:svg="http://www.w3.org/2000/svg"
   xmlns="http://www.w3.org/2000/svg"
   xmlns:sodipodi="http://sodipodi.sourceforge.net/DTD/sodipodi-0.dtd"
   xmlns:inkscape="http://www.inkscape.org/namespaces/inkscape"
   width="16px"
   height="16px"
   viewBox="0 0 12 12"
   version="1.1"
   id="svg3114"
   inkscape:version="0.91 r"
   sodipodi:docname="face-cool.svg">
  <metadata
     id="metadata3127">
    <rdf:RDF>
      <cc:Work
         rdf:about="">
        <dc:format>image/svg+xml</dc:format>
        <dc:type
           rdf:resource="http://purl.org/dc/dcmitype/StillImage" />
      </cc:Work>
    </rdf:RDF>
  </metadata>
  <defs
     id="defs3125" />
  <sodipodi:namedview
     pagecolor="#ffffff"
     bordercolor="#666666"
     borderopacity="1"
     objecttolerance="10"
     gridtolerance="10"
     guidetolerance="10"
     inkscape:pageopacity="0"
     inkscape:pageshadow="2"
     inkscape:window-width="640"
     inkscape:window-height="480"
     id="namedview3123" />
  <g
     id="surface1">
    <path
       style=" stroke:none;fill-rule:nonzero;fill:rgb(100%,85.098039%,36.078431%);fill-opacity:1;"
       d="M 11.25 6 C 11.25 8.484375 8.898438 10.5 6 10.5 C 3.101562 10.5 0.75 8.484375 0.75 6 C 0.75 3.515625 3.097656 1.5 6 1.5 C 8.902344 1.5 11.25 3.515625 11.25 6 Z M 11.25 6 "
       id="path3117" />
    <path
       style=" stroke:none;fill-rule:nonzero;fill:rgb(0.784314%,18.823529%,25.882353%);fill-opacity:1;"
       d="M 3.886719 3.628906 C 3.609375 3.632812 3.433594 3.652344 3.429688 3.652344 C 3.425781 3.652344 2.8125 3.703125 2.488281 3.984375 C 2.296875 4.15625 2.265625 4.40625 2.265625 4.417969 C 2.265625 4.421875 2.246094 4.570312 2.25 4.890625 C 2.257812 5.300781 2.429688 5.597656 2.46875 5.648438 C 2.476562 5.65625 2.484375 5.664062 2.488281 5.671875 C 2.582031 5.800781 2.875 6.1875 3.882812 6.1875 C 4.785156 6.1875 5.070312 5.824219 5.085938 5.800781 C 5.105469 5.785156 5.457031 5.390625 5.570312 4.753906 L 6.429688 4.753906 C 6.542969 5.390625 6.894531 5.785156 6.914062 5.800781 C 6.929688 5.824219 7.214844 6.1875 8.117188 6.1875 C 9.125 6.1875 9.417969 5.800781 9.511719 5.671875 C 9.515625 5.664062 9.523438 5.65625 9.53125 5.648438 C 9.570312 5.597656 9.742188 5.300781 9.75 4.890625 C 9.753906 4.570312 9.734375 4.421875 9.734375 4.417969 C 9.734375 4.40625 9.703125 4.15625 9.511719 3.984375 C 9.1875 3.703125 8.574219 3.652344 8.570312 3.652344 C 8.566406 3.652344 8.390625 3.632812 8.113281 3.628906 L 8.078125 3.628906 C 8.015625 3.628906 7.71875 3.632812 7.398438 3.671875 C 7.355469 3.675781 7.320312 3.679688 7.28125 3.6875 L 7.132812 3.710938 C 6.863281 3.761719 6.675781 3.828125 6.570312 3.914062 C 6.441406 4.023438 6.414062 4.171875 6.40625 4.214844 L 5.59375 4.214844 C 5.585938 4.171875 5.558594 4.023438 5.429688 3.914062 C 5.324219 3.828125 5.136719 3.761719 4.867188 3.710938 L 4.71875 3.6875 C 4.679688 3.679688 4.644531 3.675781 4.601562 3.671875 C 4.28125 3.632812 3.984375 3.628906 3.921875 3.628906 Z M 3.886719 3.628906 "
       id="path3119" />
    <path
       style=" stroke:none;fill-rule:nonzero;fill:rgb(38.823529%,38.823529%,38.823529%);fill-opacity:1;"
       d="M 7.875 7.125 C 7.738281 7.6875 6.972656 8.066406 6 8.066406 L 6 8.71875 C 7.117188 8.71875 8.066406 8.066406 8.25 7.125 Z M 7.875 7.125 "
       id="path3121" />
  </g>
</svg>

<svg xmlns="http://www.w3.org/2000/svg" width="16" height="16" viewBox="0 0 12 12">
 <g>
  <path d="m 11.25 6 c 0 2.484 -2.352 4.5 -5.25 4.5 c -2.898 0 -5.25 -2.02 -5.25 -4.5 c 0 -2.484 2.348 -4.5 5.25 -4.5 c 2.902 0 5.25 2.02 5.25 4.5 m 0 0" style="fill:#ffd85b;fill-opacity:1;stroke:none;fill-rule:nonzero"/>
  <path d="m 3.887 3.629 c -0.277 0.004 -0.453 0.023 -0.457 0.023 c -0.004 0 -0.617 0.051 -0.941 0.332 c -0.191 0.172 -0.223 0.422 -0.223 0.434 c 0 0.004 -0.02 0.152 -0.016 0.473 c 0.008 0.41 0.18 0.707 0.219 0.758 c 0.008 0.008 0.016 0.016 0.02 0.023 c 0.094 0.129 0.387 0.516 1.395 0.516 c 0.902 0 1.188 -0.363 1.203 -0.387 c 0.02 -0.016 0.371 -0.41 0.484 -1.047 l 0.859 0 c 0.113 0.637 0.465 1.031 0.484 1.047 c 0.016 0.023 0.301 0.387 1.203 0.387 c 1.01 0 1.301 -0.387 1.395 -0.516 c 0.004 -0.008 0.012 -0.016 0.02 -0.023 c 0.039 -0.051 0.211 -0.348 0.219 -0.758 c 0.004 -0.32 -0.016 -0.469 -0.016 -0.473 c 0 -0.012 -0.031 -0.262 -0.223 -0.434 c -0.324 -0.281 -0.938 -0.332 -0.941 -0.332 c -0.004 0 -0.18 -0.02 -0.457 -0.023 l -0.035 0 c -0.063 0 -0.359 0.004 -0.68 0.043 c -0.043 0.004 -0.078 0.008 -0.117 0.016 l -0.148 0.023 c -0.27 0.051 -0.457 0.117 -0.563 0.203 c -0.129 0.109 -0.156 0.258 -0.164 0.301 l -0.813 0 c -0.008 -0.043 -0.035 -0.191 -0.164 -0.301 c -0.105 -0.086 -0.293 -0.152 -0.563 -0.203 l -0.148 -0.023 c -0.039 -0.008 -0.074 -0.012 -0.117 -0.016 c -0.32 -0.039 -0.617 -0.043 -0.68 -0.043 m -0.035 0" style="fill:#022f42;fill-opacity:1;stroke:none;fill-rule:nonzero"/>
  <path d="m 7.875 7.125 c -0.137 0.563 -0.902 0.941 -1.875 0.941 l 0 0.652 c 1.117 0 2.066 -0.652 2.25 -1.594 m -0.375 0" style="fill:#626262;fill-opacity:1;stroke:none;fill-rule:nonzero"/>
 </g>
</svg>
